X:1
T:6 Mélodies, VWV 1133-1137/1176
T:Sérénade à Rosine, VWV 1137
T:Pauline Viardot
T:Louis Pomey
T:4. Sérénade à Rosine (VWV 1137) 
T:6 Mélodies
T:OpenScore (CC0)
T:OpenScore (CC0)
T:OpenScore (CC0)
T:OpenScore (CC0)
T:OpenScore (CC0)
T:OpenScore (CC0)
C:Pauline Viardot
Z:Louis Pomey
Z:OpenScore (CC0)
%%score 1 { 2 | 3 }
L:1/8
Q:1/4=116
M:2/4
K:F
V:1 treble nm="CHANT.\nVoice"
V:2 treble nm="PIANO"
V:3 bass 
V:1
"^Allegretto." z4 | z2 z!mp! c | c3/2 A/ B G | F2 G2 | A (G/A/) d c | G2 z c | c3/2 A/ B G | %7
w: |Sous|ta man- til- le|som- bre, o|belle au * grand œil|noir, Quel|doux es- poir t'a-|
 (F2 G2) | A (^G/A/) e d | c4 | z4 | z4 | A G/ A/ d c | (c2 G2) | z4 | z4 | A ^G/ A/ e d | %17
w: \- mê- ne  à|ton bal- * con, le|soir?|||Don Bar- to- lo som-|meil- le|||et Mar- ce- line aus-|
 c2 z (c | d G A B | c3) A |{/c} (B3/2 A/ B G | A2) z A | A D E z/ F/ | G2 z E | !^!F2 z _A | %25
w: si. Pour|la pre- miè- re|fois, on|te voit seule ain-|si. Pour|qui viens- tu? pour|qui? pour|qui? pour|
!mp!!<(! c4- | !breath!c3!<)!!f! c | c3/2 A/ B G | (F2 !breath!G2) | A G/ A/ !^!d c | G2 z (c | %31
w: qui?|* Que|je se- rais heu-|\- reux *|Si tu pen- sais à|moi, Que|
 c c d A | c3) c | (c c d A) | c2 z F |!<(! B B A A | (G2 f2-)!<)! |!ff! f4- | f2 z2 | %39
w: je se- rais heu-|\- reux Si|tu pen- sais à|moi. Comme|en trois bonds joy-|\- eux _|_||
 z!mf!!<(! (F/B/) A (A/d/)!<)! | c3!f! (d/e/) |[Q:1/4=130] f2 z2 | z4 | z4 |[Q:1/4=100] z4 | %45
w: Je * se- rais *|près de *|toi!||||
 z2 z!mp! c | c3/2 A/ B G | (F2 G2) | A G/ A/ d c | G2 z c | c3/2 A/ B G | F2 G2 | A (^G/A/) e d | %53
w: Dé-|ta- che de ton|front _|cet- te dis- crè- te|fleur Et|que ce soit, pour|moi, le|si- gne * du bon-|
 c4 | z4 | z4 | A G/ A/ d c | ([Gc]2 G2) | z4 | z4 | A ^G/ A/ e d | c2 z c | d G A B | c2 A2 | %64
w: \- heur.|||De grâ- ce, hâ- te|toi! *|||la duè- gne peut ve-|\- nir. Bien|im- pru- dent ce-|lui qui|
{/c} B3/2 A/ B G | A2 z A | A D E F | G2 z E | F2 z _A |!mp!!<(! c4- | !breath!c3!<)!!f! c | %71
w: lais- se du plai-|\- sir Les|courts mo- ments s'en-|fuir, s'en-|fuir, s'en-|\- fuir.|* O|
 c3/2 A/ B G | (F2 G2) | A G/ A/ !^!d c | G2 z (c | c c d A |"^cresc." c3) c | (c c d A) | %78
w: bel- le, prends pi-|tié _|de mon brû- lant é-|moi! O|bel- le, prends pi|\- tié de|mon brû- lant é-|
 c2!ff! z!f! F |!<(! B B !breath!A A | (G2 f2-)!<)! |!fff! f4- | f2 z2 | %83
w: moi. Un|mot, un geste, un|seul _|_||
 z!mf!!<(! (F/B/) A (A/d/)!<)! | c3!f! (d/e/) | f4- | f z z2 | z4 | z4 |] %89
w: Et * je suis _|près de *|toi!|_|||
V:2
"^Allegretto." z/ .C/.F/.A/ .c.[CEBc] | z/ .C/.F/.A/ .c.[CEBc] | z/ .C/.F/.A/ .c.[CEBc] | %3
 z/ .C/.F/.A/ .c.[CEBc] | z/ (C/F/A/ .d).[Fc] | z/ (C/E/B/ .c).[CEBc] | z/ .C/.F/.A/ .c.[CEBc] | %7
 z/ .C/.F/.A/ .c.[CEBc] | z/ (C/F/A/ .e).[FGd] | z/ C/E/G/ c[EBc] | [cc']>a [Bb][Gg] | %11
 [Ff]2 [Gg]2 | z/ C/F/A/ d[Fc] | z/ C/E/B/ c[EBc] | [cc']>a [Bb][Gg] | [Ff]2 [Gg]2 | %16
 z/ C/F/A/ e[F_Ad] | z/ C/E/G/ c z | x4 | x4 | x4 | x4 | x4 | x4 | x4 | %25
 z/[I:staff +1] G,/C/[I:staff -1]E/ z !^![_DF] | %26
 z/!<(![I:staff +1] =A,/[I:staff -1]=D/^F/!<)!!f! [_EG]!^![=E^G] | z/!p! .C/.F/.A/ c[CEBc] | %28
 z/ .C/.F/.A/ c[CEBc] | z/ (C/F/A/ d)[Fc] | z/ (C/E/B/ c)[CEBc] | x4 | x4 | x4 | x4 | %35
 (D/F/ B/f/) (C/E/ A/f/) | (B,/D/) (G/f/) (=B,/_D/) _A/f/ | z (F/B/) (A/d/) (c/g/) | %38
 f c/g/ f/b/ a/d'/ | c' z z2 | z2 z [EBc] |"^animé." [cc']>a [Bb][Gg] | [cf]>A BG | %43
 F z .[B,C] !fermata!z |"^moins vite." z/!p! .C/.F/.A/ .c[CEBc] | z/ .C/.F/.A/ .c.[CEBc] | %46
 z/ .C/.F/.A/ .c.[CEBc] | z/ .C/.F/.A/ .c.[CEBc] | z/ (C/F/A/ .d).[Fc] | z/ (C/E/B/ .c).[CEBc] | %50
 z/ (C/F/A/ .c).[CEBc] | z/ (C/F/A/ .c).[CEBc] | z/ (C/F/A/ .e).[FGd] | z/ C/E/G/ c[EBc] | %54
 [cc']>a !wedge![Bb]!wedge![Gg] | !^![Ff]2 !^![Gg]2 | z/ .C/.F/.A/ d[Fc] | z/ .C/.E/.B/ c[EBc] | %58
 [cc']>a !wedge![Bb]!wedge![Gg] | [Ff]2 [Gg]2 | z/ .C/.F/.A/ .e[F_Ad] | z/ C/E/G/ c z | x4 | x4 | %64
 x4 | x4 | x4 | x4 | x4 | z/[I:staff +1] G,/C/[I:staff -1]E/ z !^![_DF] | %70
 z/!<(![I:staff +1] =A,/[I:staff -1]=D/^F/!<)!!f! [_EG]!^![=E^G] | z/!p! .C/.F/.A/ .c.[CEBc] | %72
 z/ .C/.F/.A/ .c.[CEBc] | z/ (C/F/A/ d)[Fc] | z/ (C/E/B/ c)[CEBc] | x4 | x4 | x4 | x4 | %79
 (D/F/ B/f/) (C/E/ A/f/) | (B,/D/ G/f/) (=B,/_D/) _A/f/ | z (F/B/) (A/d/) (c/g/) | %82
 f c/g/ f/b/ a/d'/ | c' z z2 | z2 z [EBc] | !^![cc']>[Aa] !wedge![Bb]!wedge![Gg] | %86
 [cf]>A !wedge!B!wedge!G | !wedge![=B,F] !fermata!z z [ce_bc'] | [faf']2 z2 |] %89
V:3
!p! F,2 z C, | F,2 z C, | F,2 z C, | F,2 z C, | F,2 z .[A,C] | C,2 z C, | F,2 z C, | F,2 z C, | %8
 F,2 z [G,=B,] | C,2 z C | F,,/C,/F,/A,/ C [C,B,C] | F,,/C,/F,/A,/ C[C,E,B,C] | F,2 z A, | %13
 C z z C, | F,,/C,/F,/A,/ C[C,B,C] | F,,/C,/F,/A,/ C[C,B,C] | F,2 z [G,=B,] | [C,G,]2 z z | %18
 ([C,F,]/_B,/[I:staff -1] D/G/ [_Bd])[I:staff +1] z | %19
 ([C,^F,]/C/[I:staff -1] _E/A/ [c_e])[I:staff +1] z | %20
 ([C,G,]/C/[I:staff -1] =E/B/ [c=e])[I:staff +1] z | %21
 ([C,A,]/C/[I:staff -1] E/A/ [ce])[I:staff +1] z | %22
 ([C,G,]/D/[I:staff -1] F/=B/ [dg])[I:staff +1] z | %23
 ([C,G,]/_D/[I:staff -1] E/B/ [_dg])[I:staff +1] z | %24
 ([C,_A,]/_D/[I:staff -1] F/_A/ [_df])[I:staff +1] z | [C,,C,] z !^!_A, z | %26
 [C,,C,] z !^!_B, !^![C,=B,] | F,2 z C, | F,2 z C, | F,2 z A, | C,2 z2 | %31
!ped! (D,/A,/C/[I:staff -1] D/) [^FAd]2!ped-up! | %32
!ped![I:staff +1] (_E,/F,/A,/[I:staff -1] C/) [=FAc]2!ped-up! | %33
!ped![I:staff +1] (D,/A,/C/[I:staff -1] D/) [^FAd]2!ped-up! | %34
!ped![I:staff +1] (_E,/F,/A,/[I:staff -1] =C/) [FAc]2!ped-up! |[I:staff +1] x4 | x4 | %37
 C, [A,C][I:staff -1][CF][FA] |[I:staff +1][K:treble] [Ac][FA][Ac][cf] | [fa] z z2 | %40
[K:bass] z2 z [C,C] |!f! [F,,F,]/C,/F,/A,/ C[C,E,B,C] | F,,/C,/F,/A,/ C [C,E,B,C] | %43
 F,,/C,/F,/A,/!p! C, !fermata!z | [F,,F,]2 z C, | F,2 z C, | F,2 z C, | F,2 z C, | F,2 z .[A,C] | %49
 C,2 z C, | F,2 z C, | F,2 z C, | F,2 z [G,=B,] | C,2 z C | F,,/C,/F,/A,/ C [C,B,C] | %55
 F,,/C,/F,/A,/ C[C,E,B,C] | F,2 z A, | C z z C, |!ped! F,,/C,/F,/A,/ C[C,B,C]!ped-up! | %59
 F,,/C,/F,/A,/ C[C,B,C] | F,2 z [G,=B,] | [C,G,]2 z z | %62
!ped! ([C,F,]/_B,/[I:staff -1] D/G/ [_Bd])[I:staff +1] z!ped-up! | %63
!ped! ([C,^F,]/C/[I:staff -1] _E/A/ [c_e])[I:staff +1] z!ped-up! | %64
!ped! ([C,G,]/C/[I:staff -1] =E/B/ [c=e])[I:staff +1] z!ped-up! | %65
!ped! ([C,A,]/C/[I:staff -1] E/A/ [ce])[I:staff +1] z!ped-up! | %66
!ped! ([C,G,]/D/[I:staff -1] F/=B/ [dg])[I:staff +1] z!ped-up! | %67
!>(!!ped! ([C,G,]/!>)!_D/[I:staff -1] E/B/ [_dg])[I:staff +1] z!ped-up! | %68
!ped! ([C,_A,]/_D/[I:staff -1] F/_A/ [_df])[I:staff +1] z!ped-up! | [C,,C,] z !^!_A, z | %70
 [C,,C,] z !^!_B, !^![C,=B,] | F,2 z C, | F,2 z C, | F,2 z A, | C,2 z2 | %75
!ped! (D,/A,/C/[I:staff -1] D/) [^FAd]2!ped-up! | %76
!ped![I:staff +1] (_E,/F,/A,/[I:staff -1] C/) [=FAc]2!ped-up! | %77
!ped![I:staff +1] (D,/A,/C/[I:staff -1] D/) [^FAd]2!ped-up! | %78
!ped![I:staff +1] (_E,/F,/A,/[I:staff -1] =C/) [FAc]2!ped-up! |[I:staff +1] x4 | x4 | %81
 C, [A,C][I:staff -1][CF][FA] |[I:staff +1][K:treble] [Ac][FA][Ac][cf] | [fa] z z2 | %84
[K:bass] z2 z!f! [C,C] |!f!!ped! [F,,F,]/C,/F,/A,/ C[C,E,B,C]!ped-up! | %86
 [F,,F,]/C,/F,/A,/ C[C,E,B,C] | !wedge![D,_A,] !fermata!z z!f! [C,C] | [F,,F,]2 z2 |] %89

